!!!COM: Music21
!!!OTL: Polca
!!!OMV: pezas_polca_polca_polca-partitura.musicxml
**kern
*part1
*staff1
*I"Bagpipes
*I'Bag
*clefG^2
*k[]
*M2/4
=1
!LO:TX:a:t=Andante
*MM96
!LO:TX:a:t=[quarter]=96
4r
16r
16ggLL
16gg
16eeJJ
=||
16aaLL
16gg
16ff
16eeJJ
16ddLL
16aa
16aa
16ffJJ
=
16bbLL
16aa
16gg
16ffJJ
16eeLL
16gg
16gg
16eeJJ
=
16aaLL
16gg
16ff
16eeJJ
16ddLL
16ee
16ff
16ddJJ
=
8ffL
8.ee
16ggL
16gg
16eeJJ
!!linebreak:original
=
16aaLL
16gg
16ff
16eeJJ
16ddLL
16aa
16aa
16ffJJ
!!linebreak:original
=
16bbLL
16aa
16gg
16ffJJ
16eeLL
16gg
16gg
16eeJJ
=
16aaLL
16gg
16ff
16eeJJ
16ddLL
16ee
16ff
16ddJJ
=
[4ee
16eeLL]
16gg
16gg
16eeJJ
=||
16aaLL
16gg
16ff
16eeJJ
16ddLL
16aa
16aa
16ffJJ
=
16bbLL
16aa
16gg
16ffJJ
16eeLL
16gg
16gg
16eeJJ
!!linebreak:original
=
16aaLL
16gg
16ff
16eeJJ
16ddLL
16ee
16ff
16ddJJ
=
8ffL
8.ee
16ggL
16gg
16eeJJ
=
16aaLL
16gg
16ff
16eeJJ
16ddLL
16aa
16aa
16ffJJ
!!linebreak:original
=
16bbLL
16aa
16gg
16ffJJ
16eeLL
16gg
16gg
16eeJJ
=
16aaLL
16gg
16ff
16eeJJ
16ddLL
16ee
16ff
16ddJJ
=
[4ee
16eeLL]
16cc
16ee
16ggJJ
=||
8cccL
16bbL
16aaJJ
8bbL
16aaL
16ggJJ
=
8aaL
16ggL
16eeJJ
16ccLL
16gg
16gg
16eeJJ
!!linebreak:original
=
16aaLL
16gg
16ff
16eeJJ
16ddLL
16aa
16aa
16ffJJ
=
16bbLL
16aa
16gg
16ffJJ
16eeLL
16cc
16ee
16ggJJ
=
8cccL
16bbL
16aaJJ
8bbL
16aaL
16ggJJ
=
8aaL
16ggL
16eeJJ
16ccLL
16gg
16gg
16eeJJ
=
16aaLL
16gg
16ff
16eeJJ
16ddLL
16ee
16ff
16ddJJ
=
[4ee
16eeLL]
16cc
16ee
16ggJJ
!!pagebreak:original
=||
8cccL
16bbL
16aaJJ
8bbL
16aaL
16ggJJ
=
8aaL
16ggL
16eeJJ
16ccLL
16gg
16gg
16eeJJ
!!linebreak:original
=
16aaLL
16gg
16ff
16eeJJ
16ddLL
16aa
16aa
16ffJJ
=
16bbLL
16aa
16gg
16ffJJ
16eeLL
16cc
16ee
16ggJJ
=
8cccL
16bbL
16aaJJ
8bbL
16aaL
16ggJJ
=
8aaL
16ggL
16eeJJ
16ccLL
16gg
16gg
16eeJJ
!!linebreak:original
=
16aaLL
16gg
16ff
16eeJJ
16ddLL
16ee
16ff
16ddJJ
=||
[4ee
16eeLL]
16gg
16gg
16eeJJ
=||
4ee
4r
==
*-
!!!system-decoration: s1,s2
